dist/images/grain.svg

<svg width="48" height="48" viewBox="0 0 48 48" fill="none" xmlns="http://www.w3.org/2000/svg">
<path d="M46 24.0745C41.7466 24.0531 40.5973 18.2708 44.5265 16.6591C40.5226 18.0775 37.443 13.0326 40.5766 10.189C37.3045 12.8761 32.666 9.17671 34.6277 5.44523C32.4823 9.07762 26.8438 7.1706 27.3969 3C26.6375 7.13854 20.6788 7.25415 19.7564 3.14767C20.4735 7.29398 14.9145 9.41764 12.6277 5.87074C14.7357 9.52451 10.2466 13.3998 6.87034 10.8409C10.1149 13.561 7.23674 18.7216 3.17976 17.4587C7.16896 18.9169 6.24951 24.74 2 24.9255C6.25344 24.9469 7.40275 30.7292 3.47348 32.3409C7.4774 30.9225 10.557 35.9674 7.42337 38.811C10.6955 36.1239 15.334 39.8233 13.3723 43.5548C15.5177 39.9224 21.1562 41.8294 20.6031 46C21.3625 41.8615 27.3212 41.7459 28.2436 45.8523C27.5265 41.706 33.0854 39.5823 35.3723 43.1292C33.2642 39.4755 37.7534 35.6002 41.1297 38.1591C37.8851 35.439 40.7633 30.2784 44.8202 31.5413C40.831 30.0831 41.7505 24.26 46 24.0745Z" fill="white"/>
</svg>

<svg xmlns="http://www.w3.org/2000/svg" width="48" height="48" fill="none"><path fill="#fff" d="M46 24.075c-4.253-.022-5.403-5.804-1.474-7.416-4.003 1.419-7.083-3.626-3.95-6.47-3.272 2.687-7.91-1.012-5.948-4.744C32.482 9.078 26.844 7.171 27.397 3c-.76 4.139-6.718 4.254-7.64.148.716 4.146-4.843 6.27-7.13 2.723 2.109 3.654-2.38 7.529-5.757 4.97 3.245 2.72.367 7.88-3.69 6.618C7.169 18.917 6.25 24.74 2 24.926c4.253.02 5.403 5.803 1.473 7.415 4.004-1.419 7.084 3.626 3.95 6.47 3.272-2.687 7.911 1.012 5.95 4.744 2.145-3.633 7.783-1.726 7.23 2.445.76-4.139 6.718-4.254 7.64-.148-.716-4.146 4.842-6.27 7.13-2.723-2.109-3.654 2.38-7.529 5.757-4.97-3.245-2.72-.367-7.88 3.69-6.618-3.989-1.458-3.07-7.281 1.18-7.466"/></svg>
